assets/images/icons/src/tablet.svg

<?xml version="1.0" encoding="utf-8"?>
<!-- Generated by IcoMoon.io -->
<!DOCTYPE svg PUBLIC "-//W3C//DTD SVG 1.1//EN" "http://www.w3.org/Graphics/SVG/1.1/DTD/svg11.dtd">
<svg version="1.1" xmlns="http://www.w3.org/2000/svg" xmlns:xlink="http://www.w3.org/1999/xlink" width="9" height="14" viewBox="0 0 9 14">
<path fill="#444444" d="M5 11q0-0.203-0.148-0.352t-0.352-0.148-0.352 0.148-0.148 0.352 0.148 0.352 0.352 0.148 0.352-0.148 0.148-0.352zM8 9.75v-7.5q0-0.102-0.074-0.176t-0.176-0.074h-6.5q-0.102 0-0.176 0.074t-0.074 0.176v7.5q0 0.102 0.074 0.176t0.176 0.074h6.5q0.102 0 0.176-0.074t0.074-0.176zM9 2.25v8.5q0 0.516-0.367 0.883t-0.883 0.367h-6.5q-0.516 0-0.883-0.367t-0.367-0.883v-8.5q0-0.516 0.367-0.883t0.883-0.367h6.5q0.516 0 0.883 0.367t0.367 0.883z"></path>
</svg>

<svg xmlns="http://www.w3.org/2000/svg" width="9" height="14" viewBox="0 0 9 14"><path fill="#444" d="M5 11q0-.203-.148-.352T4.5 10.5t-.352.148T4 11t.148.352.352.148.352-.148T5 11zm3-1.25v-7.5q0-.102-.074-.176T7.75 2h-6.5q-.102 0-.176.074T1 2.25v7.5q0 .102.074.176T1.25 10h6.5q.102 0 .176-.074T8 9.75zm1-7.5v8.5q0 .516-.367.883T7.75 12h-6.5q-.516 0-.883-.367T0 10.75v-8.5q0-.516.367-.883T1.25 1h6.5q.516 0 .883.367T9 2.25z"/></svg>
